X:24
T:Polska efter Rondahl i D
R:Polska
O:Gotland, Slite
B:Rondahls nothäfte
B:SMUS - katalog MMD50 bild 13 nr 24
N:ur ett notehäfte märkt "Carl Nicolaus Arvid Rondahl"
Z:Nils L
M:3/4
L:1/16
K:D
f2af fege d2d2 | d2fd dcec A4 | f2af fege d2d2 | fedc d4 D4 ::
fgaf cAFA bagf | efge cdef agfe | fgaf cAFA bagf | efge cdef agfe |
f2af fege d2d2 | fedc d4 D4 :|

